static/pic/head-vol-solid.svg

<?xml version="1.0" encoding="UTF-8"?>
<svg width="40px" height="40px" viewBox="0 0 40 40" version="1.1" xmlns="http://www.w3.org/2000/svg" xmlns:xlink="http://www.w3.org/1999/xlink">
    <!-- Generator: Sketch 39.1 (31720) - http://www.bohemiancoding.com/sketch -->
    <title>vol</title>
    <desc>Created with Sketch.</desc>
    <defs></defs>
    <g id="Page-1" stroke="none" stroke-width="1" fill="none" fill-rule="evenodd">
        <g id="vol" transform="translate(-74.000000, -38.000000)" fill="#FFFFFF">
            <g id="head" transform="translate(70.000000, 38.000000)">
                <g id="vol">
                    <path d="M23.9991491,0 C12.9548691,0 4,8.95486835 4,20.0008507 C4,31.0468331 12.9548691,40 23.9991491,40 C35.0451309,40 44,31.0468331 44,20.0008507 C44,8.95486835 35.0451309,0 23.9991491,0 L23.9991491,0 Z M24,32.7272727 C16.9702982,32.7272727 11.2727273,27.0281698 11.2727273,20.0009867 C11.2727273,12.9718301 16.9702982,7.27272727 24,7.27272727 C31.0297018,7.27272727 36.7272727,12.9718301 36.7272727,20.0009867 C36.7272727,27.0281698 31.0297018,32.7272727 24,32.7272727 L24,32.7272727 Z M24,10.9090909 C18.9794073,10.9090909 14.9090909,14.9807913 14.9090909,20.0008913 C14.9090909,25.0209913 18.9794073,29.0909091 24,29.0909091 C29.0205927,29.0909091 33.0909091,25.0209913 33.0909091,20.0008913 C33.0909091,14.9807913 29.0205927,10.9090909 24,10.9090909 L24,10.9090909 Z M20.3636364,20.0008085 C20.3636364,17.9921967 21.9925582,16.3636364 24,16.3636364 C26.0090582,16.3636364 27.6363636,17.9921967 27.6363636,20.0008085 C27.6363636,22.0094204 26.0090582,23.6363636 24,23.6363636 C21.9925582,23.6363636 20.3636364,22.0094204 20.3636364,20.0008085 L20.3636364,20.0008085 Z"></path>
                </g>
            </g>
        </g>
    </g>
</svg>

<svg width="40" height="40" viewBox="0 0 40 40" xmlns="http://www.w3.org/2000/svg"><title>vol</title><g fill="none" fill-rule="evenodd"><g transform="translate(-74 -38)" fill="#FFF"><g transform="translate(70 38)"><path d="M24 0C12.954 0 4 8.955 4 20c0 11.047 8.955 20 20 20s20-8.953 20-20C44 8.956 35.045 0 24 0zm0 32.727c-7.03 0-12.727-5.699-12.727-12.726 0-7.03 5.697-12.728 12.727-12.728S36.727 12.972 36.727 20c0 7.027-5.697 12.726-12.727 12.726zm0-21.818c-5.02 0-9.09 4.072-9.09 9.092A9.09 9.09 0 0 0 24 29.09a9.09 9.09 0 1 0 0-18.182zm-3.636 9.092a3.637 3.637 0 1 1 7.274 0 3.637 3.637 0 0 1-7.274 0z"/></g></g></g></svg>
